svg/fluentui-system-icons/ic_fluent_delete_24_regular.svg

<svg width="24" height="24" viewBox="0 0 24 24" fill="none" xmlns="http://www.w3.org/2000/svg">
<path d="M10 5H14C14 3.89543 13.1046 3 12 3C10.8954 3 10 3.89543 10 5ZM8.5 5C8.5 3.067 10.067 1.5 12 1.5C13.933 1.5 15.5 3.067 15.5 5H21.25C21.6642 5 22 5.33579 22 5.75C22 6.16421 21.6642 6.5 21.25 6.5H19.9309L18.7589 18.6112C18.5729 20.5334 16.9575 22 15.0263 22H8.97369C7.04254 22 5.42715 20.5334 5.24113 18.6112L4.06908 6.5H2.75C2.33579 6.5 2 6.16421 2 5.75C2 5.33579 2.33579 5 2.75 5H8.5ZM10.5 9.75C10.5 9.33579 10.1642 9 9.75 9C9.33579 9 9 9.33579 9 9.75V17.25C9 17.6642 9.33579 18 9.75 18C10.1642 18 10.5 17.6642 10.5 17.25V9.75ZM14.25 9C14.6642 9 15 9.33579 15 9.75V17.25C15 17.6642 14.6642 18 14.25 18C13.8358 18 13.5 17.6642 13.5 17.25V9.75C13.5 9.33579 13.8358 9 14.25 9ZM6.73416 18.4667C6.84577 19.62 7.815 20.5 8.97369 20.5H15.0263C16.185 20.5 17.1542 19.62 17.2658 18.4667L18.4239 6.5H5.57608L6.73416 18.4667Z" fill="#212121"/>
</svg>

<svg xmlns="http://www.w3.org/2000/svg" width="24" height="24"><path d="M10 5h4a2 2 0 1 0-4 0ZM8.5 5a3.5 3.5 0 1 1 7 0h5.75a.75.75 0 0 1 0 1.5h-1.32l-1.17 12.111A3.75 3.75 0 0 1 15.026 22H8.974a3.75 3.75 0 0 1-3.733-3.389L4.07 6.5H2.75a.75.75 0 0 1 0-1.5H8.5Zm2 4.75a.75.75 0 0 0-1.5 0v7.5a.75.75 0 0 0 1.5 0v-7.5ZM14.25 9a.75.75 0 0 1 .75.75v7.5a.75.75 0 0 1-1.5 0v-7.5a.75.75 0 0 1 .75-.75Zm-7.516 9.467a2.25 2.25 0 0 0 2.24 2.033h6.052a2.25 2.25 0 0 0 2.24-2.033L18.424 6.5H5.576l1.158 11.967Z"/></svg>
